files/pt-br/mozilla/add-ons/webextensions/your_second_webextension/beastify-anatomy.svg

<?xml version="1.0" encoding="utf-8" standalone="no"?>
<!DOCTYPE svg PUBLIC "-//W3C//DTD SVG 1.1//EN" "http://www.w3.org/Graphics/SVG/1.1/DTD/svg11.dtd">
<svg xmlns="http://www.w3.org/2000/svg" xmlns:xl="http://www.w3.org/1999/xlink" version="1.1" viewBox="76 112 458 608" width="458pt" height="608pt" xmlns:dc="http://purl.org/dc/elements/1.1/"><metadata> Produced by OmniGraffle 6.2.5 <dc:date>2015-09-02 22:21:49 +0000</dc:date></metadata><defs><linearGradient x1="0" x2="1" id="Gradient" gradientUnits="userSpaceOnUse"><stop offset="0" stop-color="#e5f2f2"/><stop offset="1" stop-color="#cff2f2"/></linearGradient><linearGradient id="Obj_Gradient" xl:href="#Gradient" gradientTransform="translate(298.5 114) rotate(90) scale(65)"/><font-face font-family="Helvetica" font-size="14" units-per-em="1000" underline-position="-75.683594" underline-thickness="49.316406" slope="0" x-height="522.94922" cap-height="717.28516" ascent="770.01953" descent="-229.98047" font-weight="500"><font-face-src><font-face-name name="Helvetica"/></font-face-src></font-face><font-face font-family="Helvetica Neue" font-size="16" panose-1="2 0 5 3 0 0 0 2 0 4" units-per-em="1000" underline-position="-100" underline-thickness="50" slope="0" x-height="517" cap-height="714" ascent="951.99585" descent="-212.99744" font-weight="500"><font-face-src><font-face-name name="HelveticaNeue"/></font-face-src></font-face><linearGradient id="Obj_Gradient_2" xl:href="#Gradient" gradientTransform="translate(426.9375 607.75) rotate(90) scale(72.75)"/><linearGradient id="Obj_Gradient_3" xl:href="#Gradient" gradientTransform="translate(183.875 509.7131) rotate(90) scale(75.716916)"/><linearGradient id="Obj_Gradient_4" xl:href="#Gradient" gradientTransform="translate(183.875 413.15964) rotate(90) scale(75.716916)"/><linearGradient id="Obj_Gradient_5" xl:href="#Gradient" gradientTransform="translate(186.25 606.26654) rotate(90) scale(75.716916)"/><linearGradient id="Obj_Gradient_6" xl:href="#Gradient" gradientTransform="translate(183.25 289.375) rotate(90) scale(73.5)"/><linearGradient id="Obj_Gradient_7" xl:href="#Gradient" gradientTransform="translate(426.9375 293.5) rotate(90) scale(73.5)"/><linearGradient id="Obj_Gradient_8" xl:href="#Gradient" gradientTransform="translate(426.9375 377.5) rotate(90) scale(73.5)"/><linearGradient id="Obj_Gradient_9" xl:href="#Gradient" gradientTransform="translate(426.9375 461.5) rotate(90) scale(73.5)"/><marker orient="auto" overflow="visible" markerUnits="strokeWidth" id="FilledArrow_Marker" viewBox="-1 -4 10 8" markerWidth="10" markerHeight="8" color="black"><g><path d="M 8 0 L 0 -3 L 0 3 Z" fill="currentColor" stroke="currentColor" stroke-width="1"/></g></marker></defs><g stroke="none" stroke-opacity="1" stroke-dasharray="none" fill="none" fill-opacity="1"><title>Canvas 1</title><g><title>Layer 1</title><path d="M 349.5 133.2335 C 349.5 127.07605 348.2046 126.31425 338.74206 120.2205 L 338.6421 120.15745 C 329.12958 114 329.03064 114 319.26822 114 C 306.26934 114 247.5 114 247.5 114 L 247.5 179 L 349.5 179 L 349.5 133.2335 Z" fill="url(#Obj_Gradient)"/><path d="M 349.5 133.2335 C 349.5 127.07605 348.2046 126.31425 338.74206 120.2205 L 338.6421 120.15745 C 329.12958 114 329.03064 114 319.26822 114 C 306.26934 114 247.5 114 247.5 114 L 247.5 179 L 349.5 179 L 349.5 133.2335 Z M 349.5 132.9163 C 349.5 127.07605 349.40004 127.07605 329.03064 127.07605 L 329.03064 127.07605 C 329.03064 114.0637 329.03064 114 319.86594 114" stroke="black" stroke-linecap="round" stroke-linejoin="round" stroke-width="1"/><text transform="translate(252.5 138)" fill="black"><tspan font-family="Helvetica" font-size="14" font-weight="500" x="4.758789" y="14" textLength="82.48242">manifest.json</tspan></text><rect x="322.5" y="574" width="208.875" height="124.5" fill="white"/><path d="M 322.5 574 L 531.375 574 L 531.375 698.5 L 322.5 698.5 Z" stroke="black" stroke-linecap="round" stroke-linejoin="round" stroke-width="1" stroke-dasharray="1,4"/><text transform="translate(366.70954 580)" fill="black"><tspan font-family="Helvetica Neue" font-size="16" font-weight="500" x="6.4682933" y="15" textLength="109.648">Content scripts</tspan></text><path d="M 495.58686 629.27672 C 495.58686 622.3851 493.84317 621.5325 481.10597 614.71218 L 480.9714 614.6416 C 468.16693 607.75 468.03375 607.75 454.8929 607.75 C 437.39554 607.75 358.28814 607.75 358.28814 607.75 L 358.28814 680.5 L 495.58686 680.5 L 495.58686 629.27672 Z" fill="url(#Obj_Gradient_2)"/><path d="M 495.58686 629.27672 C 495.58686 622.3851 493.84317 621.5325 481.10597 614.71218 L 480.9714 614.6416 C 468.16693 607.75 468.03375 607.75 454.8929 607.75 C 437.39554 607.75 358.28814 607.75 358.28814 607.75 L 358.28814 680.5 L 495.58686 680.5 L 495.58686 629.27672 Z M 495.58686 628.9217 C 495.58686 622.3851 495.4523 622.3851 468.03375 622.3851 L 468.03375 622.3851 C 468.03375 607.8213 468.03375 607.75 455.69746 607.75" stroke="black" stroke-linecap="round" stroke-linejoin="round" stroke-width="1"/><text transform="translate(363.28814 635.625)" fill="black"><tspan font-family="Helvetica" font-size="14" font-weight="500" x="33.041453" y="14" textLength="48.248047">beastify</tspan><tspan font-family="Helvetica" font-size="14" font-weight="500" x="80.257273" y="14" textLength="14">.js</tspan></text><rect x="78.5" y="248.5" width="208.875" height="469" fill="white"/><path d="M 78.5 248.5 L 287.375 248.5 L 287.375 717.5 L 78.5 717.5 Z" stroke="black" stroke-linecap="round" stroke-linejoin="round" stroke-width="1" stroke-dasharray="1,4"/><text transform="translate(126.75 256.625)" fill="black"><tspan font-family="Helvetica Neue" font-size="16" font-weight="500" x=".232" y="15" textLength="16.288">Br</tspan><tspan font-family="Helvetica Neue" font-size="16" font-weight="500" x="16.232" y="15" textLength="91.536">owser action</tspan></text><rect x="99.25" y="380.375" width="168" height="318.125" fill="white"/><path d="M 99.25 380.375 L 267.25 380.375 L 267.25 698.5 L 99.25 698.5 Z" stroke="black" stroke-linecap="round" stroke-linejoin="round" stroke-width="1" stroke-dasharray="1,4"/><text transform="translate(159.875 386.98674)" fill="black"><tspan font-family="Helvetica Neue" font-size="16" font-weight="500" x=".288" y="15" textLength="47.424">Popup</tspan></text><path d="M 248.375 532.11773 C 248.375 524.94507 246.7367 524.05766 234.76937 516.9592 L 234.64295 516.88576 C 222.61241 509.7131 222.48728 509.7131 210.14069 509.7131 C 193.70093 509.7131 119.375 509.7131 119.375 509.7131 L 119.375 585.43 L 248.375 585.43 L 248.375 532.11773 Z" fill="url(#Obj_Gradient_3)"/><path d="M 248.375 532.11773 C 248.375 524.94507 246.7367 524.05766 234.76937 516.9592 L 234.64295 516.88576 C 222.61241 509.7131 222.48728 509.7131 210.14069 509.7131 C 193.70093 509.7131 119.375 509.7131 119.375 509.7131 L 119.375 585.43 L 248.375 585.43 L 248.375 532.11773 Z M 248.375 531.74823 C 248.375 524.94507 248.24858 524.94507 222.48728 524.94507 L 222.48728 524.94507 C 222.48728 509.7873 222.48728 509.7131 210.89663 509.7131" stroke="black" stroke-linecap="round" stroke-linejoin="round" stroke-width="1"/><text transform="translate(124.375 539.07155)" fill="black"><tspan font-family="Helvetica" font-size="14" font-weight="500" x="3.4658203" y="14" textLength="115.95801">choose_beast.css </tspan></text><path d="M 248.375 435.56428 C 248.375 428.39162 246.7367 427.50421 234.76937 420.40575 L 234.64295 420.3323 C 222.61241 413.15964 222.48728 413.15964 210.14069 413.15964 C 193.70093 413.15964 119.375 413.15964 119.375 413.15964 L 119.375 488.87656 L 248.375 488.87656 L 248.375 435.56428 Z" fill="url(#Obj_Gradient_4)"/><path d="M 248.375 435.56428 C 248.375 428.39162 246.7367 427.50421 234.76937 420.40575 L 234.64295 420.3323 C 222.61241 413.15964 222.48728 413.15964 210.14069 413.15964 C 193.70093 413.15964 119.375 413.15964 119.375 413.15964 L 119.375 488.87656 L 248.375 488.87656 L 248.375 435.56428 Z M 248.375 435.19478 C 248.375 428.39162 248.24858 428.39162 222.48728 428.39162 L 222.48728 428.39162 C 222.48728 413.23385 222.48728 413.15964 210.89663 413.15964" stroke="black" stroke-linecap="round" stroke-linejoin="round" stroke-width="1"/><text transform="translate(124.375 442.5181)" fill="black"><tspan font-family="Helvetica" font-size="14" font-weight="500" x=".7416992" y="14" textLength="121.40625">choose_beast.html </tspan></text><path d="M 250.75 628.67118 C 250.75 621.4985 249.1117 620.6111 237.14437 613.51265 L 237.01795 613.4392 C 224.98741 606.26654 224.86228 606.26654 212.51569 606.26654 C 196.07593 606.26654 121.75 606.26654 121.75 606.26654 L 121.75 681.98346 L 250.75 681.98346 L 250.75 628.67118 Z" fill="url(#Obj_Gradient_5)"/><path d="M 250.75 628.67118 C 250.75 621.4985 249.1117 620.6111 237.14437 613.51265 L 237.01795 613.4392 C 224.98741 606.26654 224.86228 606.26654 212.51569 606.26654 C 196.07593 606.26654 121.75 606.26654 121.75 606.26654 L 121.75 681.98346 L 250.75 681.98346 L 250.75 628.67118 Z M 250.75 628.30168 C 250.75 621.4985 250.62358 621.4985 224.86228 621.4985 L 224.86228 621.4985 C 224.86228 606.34074 224.86228 606.26654 213.27163 606.26654" stroke="black" stroke-linecap="round" stroke-linejoin="round" stroke-width="1"/><text transform="translate(126.75 635.625)" fill="black"><tspan font-family="Helvetica" font-size="14" font-weight="500" x="8.9106445" y="14" textLength="105.06836">choose_beast.js </tspan></text><path d="M 247.5 311.12365 C 247.5 304.161 245.86805 303.29958 233.9471 296.40895 L 233.82118 296.33766 C 221.83726 289.375 221.71262 289.375 209.41388 289.375 C 193.03784 289.375 119 289.375 119 289.375 L 119 362.875 L 247.5 362.875 L 247.5 311.12365 Z" fill="url(#Obj_Gradient_6)"/><path d="M 247.5 311.12365 C 247.5 304.161 245.86805 303.29958 233.9471 296.40895 L 233.82118 296.33766 C 221.83726 289.375 221.71262 289.375 209.41388 289.375 C 193.03784 289.375 119 289.375 119 289.375 L 119 362.875 L 247.5 362.875 L 247.5 311.12365 Z M 247.5 310.76497 C 247.5 304.161 247.37407 304.161 221.71262 304.161 L 221.71262 304.161 C 221.71262 289.44703 221.71262 289.375 210.1669 289.375" stroke="black" stroke-linecap="round" stroke-linejoin="round" stroke-width="1"/><text transform="translate(124 317.625)" fill="black"><tspan font-family="Helvetica" font-size="14" font-weight="500" x="25.001953" y="14" textLength="72.385742">beasts.png </tspan></text><rect x="322.5" y="248.5" width="208.875" height="305.5" fill="white"/><path d="M 322.5 248.5 L 531.375 248.5 L 531.375 554 L 322.5 554 Z" stroke="black" stroke-linecap="round" stroke-linejoin="round" stroke-width="1" stroke-dasharray="1,4"/><rect x="328.4375" y="254" width="197" height="30" fill="white"/><text transform="translate(333.4375 260)" fill="black"><tspan font-family="Helvetica Neue" font-size="16" font-weight="500" x=".316" y="15" textLength="14.816">W</tspan><tspan font-family="Helvetica Neue" font-size="16" font-weight="500" x="14.22" y="15" textLength="107.856">eb accessible r</tspan><tspan font-family="Helvetica Neue" font-size="16" font-weight="500" x="121.788" y="15" textLength="40">esour</tspan><tspan font-family="Helvetica Neue" font-size="16" font-weight="500" x="161.5" y="15" textLength="25.184">ces</tspan></text><path d="M 491.1875 315.24865 C 491.1875 308.286 489.55555 307.42458 477.6346 300.53395 L 477.50868 300.46266 C 465.52476 293.5 465.40012 293.5 453.10138 293.5 C 436.72534 293.5 362.6875 293.5 362.6875 293.5 L 362.6875 367 L 491.1875 367 L 491.1875 315.24865 Z" fill="url(#Obj_Gradient_7)"/><path d="M 491.1875 315.24865 C 491.1875 308.286 489.55555 307.42458 477.6346 300.53395 L 477.50868 300.46266 C 465.52476 293.5 465.40012 293.5 453.10138 293.5 C 436.72534 293.5 362.6875 293.5 362.6875 293.5 L 362.6875 367 L 491.1875 367 L 491.1875 315.24865 Z M 491.1875 314.88997 C 491.1875 308.286 491.06157 308.286 465.40012 308.286 L 465.40012 308.286 C 465.40012 293.57203 465.40012 293.5 453.8544 293.5" stroke="black" stroke-linecap="round" stroke-linejoin="round" stroke-width="1"/><text transform="translate(367.6875 321.75)" fill="black"><tspan font-family="Helvetica" font-size="14" font-weight="500" x="35.901855" y="14" textLength="50.585938">frog.jpg </tspan></text><path d="M 491.1875 399.24865 C 491.1875 392.286 489.55555 391.42458 477.6346 384.53395 L 477.50868 384.46266 C 465.52476 377.5 465.40012 377.5 453.10138 377.5 C 436.72534 377.5 362.6875 377.5 362.6875 377.5 L 362.6875 451 L 491.1875 451 L 491.1875 399.24865 Z" fill="url(#Obj_Gradient_8)"/><path d="M 491.1875 399.24865 C 491.1875 392.286 489.55555 391.42458 477.6346 384.53395 L 477.50868 384.46266 C 465.52476 377.5 465.40012 377.5 453.10138 377.5 C 436.72534 377.5 362.6875 377.5 362.6875 377.5 L 362.6875 451 L 491.1875 451 L 491.1875 399.24865 Z M 491.1875 398.88997 C 491.1875 392.286 491.06157 392.286 465.40012 392.286 L 465.40012 392.286 C 465.40012 377.57203 465.40012 377.5 453.8544 377.5" stroke="black" stroke-linecap="round" stroke-linejoin="round" stroke-width="1"/><text transform="translate(367.6875 405.75)" fill="black"><tspan font-family="Helvetica" font-size="14" font-weight="500" x="29.284668" y="14" textLength="63.820312">snake.jpg </tspan></text><path d="M 491.1875 483.24865 C 491.1875 476.286 489.55555 475.42458 477.6346 468.53395 L 477.50868 468.46266 C 465.52476 461.5 465.40012 461.5 453.10138 461.5 C 436.72534 461.5 362.6875 461.5 362.6875 461.5 L 362.6875 535 L 491.1875 535 L 491.1875 483.24865 Z" fill="url(#Obj_Gradient_9)"/><path d="M 491.1875 483.24865 C 491.1875 476.286 489.55555 475.42458 477.6346 468.53395 L 477.50868 468.46266 C 465.52476 461.5 465.40012 461.5 453.10138 461.5 C 436.72534 461.5 362.6875 461.5 362.6875 461.5 L 362.6875 535 L 491.1875 535 L 491.1875 483.24865 Z M 491.1875 482.88997 C 491.1875 476.286 491.06157 476.286 465.40012 476.286 L 465.40012 476.286 C 465.40012 461.57203 465.40012 461.5 453.8544 461.5" stroke="black" stroke-linecap="round" stroke-linejoin="round" stroke-width="1"/><text transform="translate(367.6875 489.75)" fill="black"><tspan font-family="Helvetica" font-size="14" font-weight="500" x="32.401855" y="14" textLength="57.585938">turtle.jpg </tspan></text><line x1="298.5" y1="179" x2="418.23051" y2="243.78848" marker-end="url(#FilledArrow_Marker)" stroke="black" stroke-linecap="round" stroke-linejoin="round" stroke-width="1"/><line x1="298.5" y1="179" x2="191.42141" y2="243.39772" marker-end="url(#FilledArrow_Marker)" stroke="black" stroke-linecap="round" stroke-linejoin="round" stroke-width="1"/><line x1="250.75" y1="644.125" x2="348.38814" y2="644.125" marker-end="url(#FilledArrow_Marker)" stroke="black" stroke-linecap="round" stroke-linejoin="round" stroke-width="1"/></g></g></svg>

<svg xmlns="http://www.w3.org/2000/svg" xmlns:xl="http://www.w3.org/1999/xlink" viewBox="76 112 458 608" width="458pt" height="608pt"><defs><linearGradient x1="0" x2="1" id="a" gradientUnits="userSpaceOnUse"><stop offset="0" stop-color="#e5f2f2"/><stop offset="1" stop-color="#cff2f2"/></linearGradient><linearGradient id="b" xl:href="#a" gradientTransform="matrix(0 65 -65 0 298.5 114)"/><linearGradient id="c" xl:href="#a" gradientTransform="rotate(90 -90.406 517.344) scale(72.75)"/><linearGradient id="d" xl:href="#a" gradientTransform="rotate(90 -162.919 346.794) scale(75.71692)"/><linearGradient id="e" xl:href="#a" gradientTransform="rotate(90 -114.643 298.518) scale(75.71692)"/><linearGradient id="f" xl:href="#a" gradientTransform="rotate(90 -210.009 396.259) scale(75.71692)"/><linearGradient id="g" xl:href="#a" gradientTransform="matrix(0 73.5 -73.5 0 183.25 289.375)"/><linearGradient id="h" xl:href="#a" gradientTransform="matrix(0 73.5 -73.5 0 426.938 293.5)"/><linearGradient id="i" xl:href="#a" gradientTransform="matrix(0 73.5 -73.5 0 426.938 377.5)"/><linearGradient id="j" xl:href="#a" gradientTransform="matrix(0 73.5 -73.5 0 426.938 461.5)"/><marker orient="auto" overflow="visible" markerUnits="strokeWidth" id="k" viewBox="-1 -4 10 8" markerWidth="10" markerHeight="8" color="#000"><path d="M8 0 0-3v6z" fill="currentColor" stroke="currentColor"/></marker></defs><g fill="none"><path d="M349.5 133.233c0-6.157-1.295-6.919-10.758-13.013l-.1-.063C329.13 114 329.031 114 319.268 114H247.5v65h102v-45.767z" fill="url(#b)"/><path d="M349.5 133.233c0-6.157-1.295-6.919-10.758-13.013l-.1-.063C329.13 114 329.031 114 319.268 114H247.5v65h102v-45.767zm0-.317c0-5.84-.1-5.84-20.47-5.84h0c0-13.012 0-13.076-9.164-13.076" stroke="#000" stroke-linecap="round" stroke-linejoin="round"/><text transform="translate(252.5 138)" fill="#000"><tspan font-family="Helvetica" font-size="14" font-weight="500" x="4.759" y="14" textLength="82.482">manifest.json</tspan></text><path fill="#fff" d="M322.5 574h208.875v124.5H322.5z"/><path d="M322.5 574h208.875v124.5H322.5z" stroke="#000" stroke-linecap="round" stroke-linejoin="round" stroke-dasharray="1,4"/><text transform="translate(366.71 580)" fill="#000"><tspan font-family="Helvetica Neue" font-size="16" font-weight="500" x="6.468" y="15" textLength="109.648">Content scripts</tspan></text><path d="M495.587 629.277c0-6.892-1.744-7.745-14.481-14.565l-.135-.07c-12.804-6.892-12.937-6.892-26.078-6.892h-96.605v72.75h137.299v-51.223z" fill="url(#c)"/><path d="M495.587 629.277c0-6.892-1.744-7.745-14.481-14.565l-.135-.07c-12.804-6.892-12.937-6.892-26.078-6.892h-96.605v72.75h137.299v-51.223zm0-.355c0-6.537-.135-6.537-27.553-6.537h0c0-14.564 0-14.635-12.337-14.635" stroke="#000" stroke-linecap="round" stroke-linejoin="round"/><text transform="translate(363.288 635.625)" fill="#000"><tspan font-family="Helvetica" font-size="14" font-weight="500" x="33.041" y="14" textLength="48.248">beastify</tspan><tspan font-family="Helvetica" font-size="14" font-weight="500" x="80.257" y="14" textLength="14">.js</tspan></text><path fill="#fff" d="M78.5 248.5h208.875v469H78.5z"/><path d="M78.5 248.5h208.875v469H78.5z" stroke="#000" stroke-linecap="round" stroke-linejoin="round" stroke-dasharray="1,4"/><text transform="translate(126.75 256.625)" fill="#000"><tspan font-family="Helvetica Neue" font-size="16" font-weight="500" x=".232" y="15" textLength="16.288">Br</tspan><tspan font-family="Helvetica Neue" font-size="16" font-weight="500" x="16.232" y="15" textLength="91.536">owser action</tspan></text><path fill="#fff" d="M99.25 380.375h168V698.5h-168z"/><path d="M99.25 380.375h168V698.5h-168z" stroke="#000" stroke-linecap="round" stroke-linejoin="round" stroke-dasharray="1,4"/><text transform="translate(159.875 386.987)" fill="#000"><tspan font-family="Helvetica Neue" font-size="16" font-weight="500" x=".288" y="15" textLength="47.424">Popup</tspan></text><path d="M248.375 532.118c0-7.173-1.638-8.06-13.606-15.159l-.126-.073c-12.03-7.173-12.156-7.173-24.502-7.173h-90.766v75.717h129v-53.312z" fill="url(#d)"/><path d="M248.375 532.118c0-7.173-1.638-8.06-13.606-15.159l-.126-.073c-12.03-7.173-12.156-7.173-24.502-7.173h-90.766v75.717h129v-53.312zm0-.37c0-6.803-.126-6.803-25.888-6.803h0c0-15.158 0-15.232-11.59-15.232" stroke="#000" stroke-linecap="round" stroke-linejoin="round"/><text transform="translate(124.375 539.072)" fill="#000"><tspan font-family="Helvetica" font-size="14" font-weight="500" x="3.466" y="14" textLength="115.958">choose_beast.css </tspan></text><path d="M248.375 435.564c0-7.172-1.638-8.06-13.606-15.158l-.126-.074c-12.03-7.172-12.156-7.172-24.502-7.172h-90.766v75.717h129v-53.313z" fill="url(#e)"/><path d="M248.375 435.564c0-7.172-1.638-8.06-13.606-15.158l-.126-.074c-12.03-7.172-12.156-7.172-24.502-7.172h-90.766v75.717h129v-53.313zm0-.37c0-6.802-.126-6.802-25.888-6.802h0c0-15.158 0-15.232-11.59-15.232" stroke="#000" stroke-linecap="round" stroke-linejoin="round"/><text transform="translate(124.375 442.518)" fill="#000"><tspan font-family="Helvetica" font-size="14" font-weight="500" x=".742" y="14" textLength="121.406">choose_beast.html </tspan></text><path d="M250.75 628.671c0-7.173-1.638-8.06-13.606-15.158l-.126-.074c-12.03-7.172-12.156-7.172-24.502-7.172H121.75v75.716h129v-53.312z" fill="url(#f)"/><path d="M250.75 628.671c0-7.173-1.638-8.06-13.606-15.158l-.126-.074c-12.03-7.172-12.156-7.172-24.502-7.172H121.75v75.716h129v-53.312zm0-.37c0-6.803-.126-6.803-25.888-6.803h0c0-15.157 0-15.231-11.59-15.231" stroke="#000" stroke-linecap="round" stroke-linejoin="round"/><text transform="translate(126.75 635.625)" fill="#000"><tspan font-family="Helvetica" font-size="14" font-weight="500" x="8.911" y="14" textLength="105.068">choose_beast.js </tspan></text><path d="M247.5 311.124c0-6.963-1.632-7.824-13.553-14.715l-.126-.071c-11.984-6.963-12.108-6.963-24.407-6.963H119v73.5h128.5v-51.751z" fill="url(#g)"/><path d="M247.5 311.124c0-6.963-1.632-7.824-13.553-14.715l-.126-.071c-11.984-6.963-12.108-6.963-24.407-6.963H119v73.5h128.5v-51.751zm0-.359c0-6.604-.126-6.604-25.787-6.604h0c0-14.714 0-14.786-11.546-14.786" stroke="#000" stroke-linecap="round" stroke-linejoin="round"/><text transform="translate(124 317.625)" fill="#000"><tspan font-family="Helvetica" font-size="14" font-weight="500" x="25.002" y="14" textLength="72.386">beasts.png </tspan></text><path fill="#fff" d="M322.5 248.5h208.875V554H322.5z"/><path d="M322.5 248.5h208.875V554H322.5z" stroke="#000" stroke-linecap="round" stroke-linejoin="round" stroke-dasharray="1,4"/><path fill="#fff" d="M328.438 254h197v30h-197z"/><text transform="translate(333.438 260)" fill="#000"><tspan font-family="Helvetica Neue" font-size="16" font-weight="500" x=".316" y="15" textLength="14.816">W</tspan><tspan font-family="Helvetica Neue" font-size="16" font-weight="500" x="14.22" y="15" textLength="107.856">eb accessible r</tspan><tspan font-family="Helvetica Neue" font-size="16" font-weight="500" x="121.788" y="15" textLength="40">esour</tspan><tspan font-family="Helvetica Neue" font-size="16" font-weight="500" x="161.5" y="15" textLength="25.184">ces</tspan></text><path d="M491.188 315.249c0-6.963-1.632-7.824-13.553-14.715l-.126-.071C465.525 293.5 465.4 293.5 453.1 293.5h-90.413V367h128.5v-51.751z" fill="url(#h)"/><path d="M491.188 315.249c0-6.963-1.632-7.824-13.553-14.715l-.126-.071C465.525 293.5 465.4 293.5 453.1 293.5h-90.413V367h128.5v-51.751zm0-.359c0-6.604-.126-6.604-25.788-6.604h0c0-14.714 0-14.786-11.546-14.786" stroke="#000" stroke-linecap="round" stroke-linejoin="round"/><text transform="translate(367.688 321.75)" fill="#000"><tspan font-family="Helvetica" font-size="14" font-weight="500" x="35.902" y="14" textLength="50.586">frog.jpg </tspan></text><path d="M491.188 399.249c0-6.963-1.632-7.824-13.553-14.715l-.126-.071C465.525 377.5 465.4 377.5 453.1 377.5h-90.413V451h128.5v-51.751z" fill="url(#i)"/><path d="M491.188 399.249c0-6.963-1.632-7.824-13.553-14.715l-.126-.071C465.525 377.5 465.4 377.5 453.1 377.5h-90.413V451h128.5v-51.751zm0-.359c0-6.604-.126-6.604-25.788-6.604h0c0-14.714 0-14.786-11.546-14.786" stroke="#000" stroke-linecap="round" stroke-linejoin="round"/><text transform="translate(367.688 405.75)" fill="#000"><tspan font-family="Helvetica" font-size="14" font-weight="500" x="29.285" y="14" textLength="63.82">snake.jpg </tspan></text><path d="M491.188 483.249c0-6.963-1.632-7.824-13.553-14.715l-.126-.071C465.525 461.5 465.4 461.5 453.1 461.5h-90.413V535h128.5v-51.751z" fill="url(#j)"/><path d="M491.188 483.249c0-6.963-1.632-7.824-13.553-14.715l-.126-.071C465.525 461.5 465.4 461.5 453.1 461.5h-90.413V535h128.5v-51.751zm0-.359c0-6.604-.126-6.604-25.788-6.604h0c0-14.714 0-14.786-11.546-14.786" stroke="#000" stroke-linecap="round" stroke-linejoin="round"/><text transform="translate(367.688 489.75)" fill="#000"><tspan font-family="Helvetica" font-size="14" font-weight="500" x="32.402" y="14" textLength="57.586">turtle.jpg </tspan></text><path marker-end="url(#k)" stroke="#000" stroke-linecap="round" stroke-linejoin="round" d="m298.5 179 119.731 64.788M298.5 179l-107.079 64.398m59.329 400.727h97.638"/></g></svg>
